Suru++-Ubuntu/apps/scalable/avidemux2.6-jobs.svg

<svg width="256" height="256" version="1.1" viewBox="0 0 67.73 67.73" xmlns="http://www.w3.org/2000/svg" xmlns:xlink="http://www.w3.org/1999/xlink">
 <defs>
  <linearGradient id="linearGradient4216" x1="56" x2="56" y1="288" y2="83.578" gradientTransform="matrix(.5 0 0 .5 12 10)" gradientUnits="userSpaceOnUse" spreadMethod="reflect">
   <stop style="stop-color:#fdfdfd" offset="0"/>
   <stop style="stop-color:#fcfcfc" offset=".646"/>
   <stop style="stop-color:#ffffff;stop-opacity:0" offset="1"/>
  </linearGradient>
  <clipPath id="clipPath942-3">
   <path d="M 188.96875,44 C 261.6174,44 272,54.356615 272,126.9375 v 58.125 C 272,257.64309 261.6174,268 188.96875,268 h -73.9375 C 42.3826,268 32,257.64309 32,185.0625 v -58.125 C 32,54.356615 42.3826,44 115.03125,44 Z" style="fill:#46a926"/>
  </clipPath>
  <linearGradient id="linearGradient1108" x1="296" x2="296" y1="-212" y2="236" gradientUnits="userSpaceOnUse">
   <stop style="stop-color:#ffffff" offset="0"/>
   <stop style="stop-color:#ffffff;stop-opacity:.09803922" offset=".125"/>
   <stop style="stop-color:#000000;stop-opacity:.09803922" offset=".925"/>
   <stop style="stop-color:#000000;stop-opacity:.49803922" offset="1"/>
  </linearGradient>
  <clipPath id="clipPath1082-3-75">
   <path d="M 361.9375,-212 C 507.2348,-212 528,-191.28677 528,-46.125 V 70.125 C 528,215.28618 507.2348,236 361.9375,236 H 214.0625 C 68.7652,236 48,215.28618 48,70.125 V -46.125 C 48,-191.28677 68.7652,-212 214.0625,-212 Z" style="fill:#8c59d9"/>
  </clipPath>
  <linearGradient id="linearGradient946" x1="24" x2="328" y1="28" y2="332" gradientTransform="matrix(.26458333 0 0 .26458333 -6.993468 221.97263)" gradientUnits="userSpaceOnUse">
   <stop style="stop-color:#6f6f6f" offset="0"/>
   <stop style="stop-color:#444444" offset=".529"/>
   <stop style="stop-color:#373737" offset="1"/>
  </linearGradient>
  <filter id="filter933" x="-.02" y="-.03" width="1.046" height="1.05" style="color-interpolation-filters:sRGB">
   <feGaussianBlur stdDeviation="2.32"/>
  </filter>
  <filter id="filter4569" x="-.01" y="-.01" width="1.023" height="1.025" style="color-interpolation-filters:sRGB">
   <feGaussianBlur stdDeviation="1.16"/>
  </filter>
  <linearGradient id="linearGradient4470" x1="256" x2="256" y1="375" y2="135.281" gradientTransform="matrix(.13229166 0 0 .13229166 -.03208851 229.37862)" gradientUnits="userSpaceOnUse">
   <stop style="stop-color:#6f6f6f" offset="0"/>
   <stop style="stop-color:#4e4e4e" offset="1"/>
  </linearGradient>
  <filter id="filter4460" x="-.01" y="-.01" width="1.026" height="1.023" style="color-interpolation-filters:sRGB">
   <feGaussianBlur stdDeviation="1.133"/>
  </filter>
  <linearGradient id="linearGradient4413" x1="256" x2="256" y1="138" y2="375" gradientUnits="userSpaceOnUse">
   <stop style="stop-color:#000000;stop-opacity:0" offset="0"/>
   <stop style="stop-color:#000000" offset=".505"/>
   <stop style="stop-color:#000000;stop-opacity:0" offset="1"/>
  </linearGradient>
 </defs>
 <g transform="translate(0,-229.26666)">
  <path transform="matrix(.26458333 0 0 .26458333 -1.8735233e-8 232.67026)" d="m162.53675 3.5680001c72.64865 0 83.03125 10.356615 83.03125 82.937505v58.125005c0 72.58059-10.3826 82.9375-83.03125 82.9375h-73.937496c-72.648654 0-83.031254-10.35691-83.031254-82.9375v-58.125005c0-72.58089 10.3826-82.937505 83.031254-82.937505z" style="filter:url(#filter4569);opacity:.1"/>
  <path transform="matrix(.26458333 0 0 .26458333 -1.8735233e-8 232.67026)" d="m162.53675 5.5680001c72.64865 0 83.03125 10.356615 83.03125 82.937505v58.125005c0 72.58059-10.3826 82.9375-83.03125 82.9375h-73.937496c-72.648654 0-83.031254-10.35691-83.031254-82.9375v-58.125005c0-72.58089 10.3826-82.937505 83.031254-82.937505z" style="filter:url(#filter933);opacity:.2"/>
  <path d="m43.004513 233.61429c19.221622 0 21.968685 2.74019 21.968685 21.94388v15.37891c0 19.20362-2.747063 21.94388-21.968685 21.94388h-19.56263c-19.221622 0-21.968685-2.74026-21.968685-21.94388v-15.37891c0-19.20369 2.747063-21.94388 21.968685-21.94388z" style="fill:url(#linearGradient946)"/>
  <path d="m1.473198 263.24763v7.68945c0 19.20362 2.747063 21.94388 21.968685 21.94388h19.56263c19.221622 0 21.968685-2.74026 21.968685-21.94388v-7.68945z" style="fill:#ffffff;opacity:.1"/>
  <path d="m28.369747 245.78513-4.655012 9.47952v7.83828c-0.653513 0.76571-1.367793 1.5373-2.112531 2.28204-2.44781 2.4478-5.192145 4.58877-7.027996 5.20071l-3.092318-3.08818-9.479525 4.65501v22.58054h33.866666v-42.01088c-2.039491-4.42431-4.282038-6.07499-7.499284-6.93704zm-12.906705 30.29479c9.26e-4 -5.3e-4 0.0032 5.3e-4 0.0041 0-0.345379 0.21569-0.694661 0.42686-1.045931 0.63665 0.351357-0.20976 0.696343-0.421 1.041803-0.63665zm-3.187402 1.86035c0.0011-5.3e-4 0.0031 5.3e-4 0.0041 0-0.362722 0.19832-0.731389 0.3943-1.099674 0.58705 0.368336-0.19273 0.732771-0.38875 1.095547-0.58705z" style="fill-opacity:0;opacity:.05"/>
  <path transform="matrix(.13229167 0 0 .13229167 -4.876802 261.66013)" d="M 361.9375,-212 C 507.2348,-212 528,-191.28677 528,-46.125 V 70.125 C 528,215.28618 507.2348,236 361.9375,236 H 214.0625 C 68.7652,236 48,215.28618 48,70.125 V -46.125 C 48,-191.28677 68.7652,-212 214.0625,-212 Z" clip-path="url(#clipPath1082-3-75)" style="fill:none;opacity:.4;stroke-linecap:round;stroke-linejoin:round;stroke-width:8;stroke:url(#linearGradient1108)"/>
  <path transform="matrix(0 .2528574 -.26458333 0 74.498197 224.8133)" d="m40 52v16h20v-16zm204 0v16h20v-16zm-204 24v16h20v-16zm204 0v16h20v-16zm-204 24v16h20v-16zm204 0v16h20v-16zm-204 24v16h20v-16zm204 0v16h20v-16zm-204 24v16h20v-16zm204 0v16h20v-16zm-204 24v16h20v-16zm204 0v16h20v-16zm-204 24v16h20v-16zm204 0v16h20v-16zm-204 24v16h20v-16zm204 0v16h20v-16zm-204 24v16h20v-16zm204 0v16h20v-16z" clip-path="url(#clipPath942-3)" style="fill:url(#linearGradient4216);opacity:.5"/>
  <path transform="matrix(.26458333 0 0 .26458333 0 229.26666)" d="m10.947266 45.931641c-0.2381 0.700852-0.53521 1.307553-0.753907 2.041015-0.7222414 2.422245-1.3400611 5.023955-1.8671871 7.81836-0.527126 2.794404-0.9629686 5.780765-1.3203125 8.972656s-0.6367138 6.588422-0.8496094 10.203125c-0.4257911 7.229405-0.5878906 15.329734-0.5878906 24.402344v58.124999c0 9.07258 0.1620995 17.17296 0.5878906 24.40234 0.2128956 3.6147 0.4922655 7.01124 0.8496094 10.20313 0.3573439 3.19188 0.7931865 6.18021 1.3203125 8.97461s1.1449457 5.39611 1.8671871 7.81836c0.218513 0.73284 0.516024 1.33877 0.753907 2.03906h229.24218c0.23786-0.70023 0.53542-1.30629 0.75391-2.03906 0.72224-2.42225 1.34006-5.02396 1.86719-7.81836 0.52712-2.7944 0.96297-5.78273 1.32031-8.97461 0.35734-3.19189 0.63671-6.58843 0.84961-10.20313 0.42579-7.22938 0.58789-15.32976 0.58789-24.40234v-58.124999c0-9.07261-0.1621-17.172939-0.58789-24.402344-0.2129-3.614703-0.49227-7.011234-0.84961-10.203125s-0.79319-6.178252-1.32031-8.972656c-0.52713-2.794405-1.14495-5.396115-1.86719-7.81836-0.21868-0.733393-0.51583-1.340226-0.75391-2.041015h-229.24218z" style="fill:#fffeff;opacity:.75"/>
  <path transform="matrix(.13229167 0 0 .13229167 -.03208951 229.37862)" d="m155.41127 137.99999v239.99999s121.72498-49.19762 221.18971-120.07579c0-0.0217-0.0115-0.0398-0.0253-0.0645-0.0115-0.0263-0.0264-0.0523-0.0448-0.0786-0.0191-0.026-0.0374-0.0533-0.0504-0.0786-0.0147-0.0262-0.0253-0.0526-0.0253-0.0758-104.91599-73.13856-221.04372-119.62658-221.04372-119.62658z" style="fill:url(#linearGradient4413);filter:url(#filter4415);opacity:.4"/>
  <path transform="matrix(.13229167 0 0 .13229167 -.03208951 229.37862)" d="m155.41127 137.99999v239.99999s121.72498-49.19762 221.18971-120.07579c0-0.0217-0.0115-0.0398-0.0253-0.0645-0.0115-0.0263-0.0264-0.0523-0.0448-0.0786-0.0191-0.026-0.0374-0.0533-0.0504-0.0786-0.0147-0.0262-0.0253-0.0526-0.0253-0.0758-104.91599-73.13856-221.04372-119.62658-221.04372-119.62658z" style="filter:url(#filter4460);opacity:.1"/>
  <path d="m20.527526 247.37029v31.75s16.103196-6.50844 29.261551-15.88503c0-3e-3 -0.0016-5e-3 -0.0034-9e-3 -0.0016-3e-3 -0.0035-7e-3 -0.0059-0.0104-0.0026-3e-3 -0.0049-7e-3 -0.0067-0.0104-0.0019-3e-3 -0.0034-7e-3 -0.0034-0.01-13.879426-9.67517-29.242153-15.82515-29.242153-15.82515z" style="fill:url(#linearGradient4470)"/>
  <path d="m20.527452 247.37029v0.26458s15.258392 6.10639 29.090136 15.72101c0.05704-0.0405 0.114596-0.0801 0.171566-0.12067 0-3e-3 -0.0016-5e-3 -0.0034-9e-3 -0.0016-3e-3 -0.0035-7e-3 -6e-3 -0.0103-0.0026-3e-3 -5e-3 -7e-3 -0.0067-0.0104-0.0019-3e-3 -0.0034-7e-3 -0.0034-0.0101-13.879496-9.6756-29.242308-15.82563-29.242308-15.82563z" style="fill:#ffffff;opacity:.75"/>
 </g>
</svg>

<svg xmlns="http://www.w3.org/2000/svg" xmlns:xlink="http://www.w3.org/1999/xlink" width="256" height="256" version="1.1" viewBox="0 0 67.73 67.73">
 <defs>
  <linearGradient id="linearGradient4216" x1="56" x2="56" y1="288" y2="83.578" gradientTransform="matrix(0.5,0,0,0.5,12,10)" gradientUnits="userSpaceOnUse" spreadMethod="reflect" xlink:href="#linearGradient4210"/>
  <linearGradient id="linearGradient4210">
   <stop style="stop-color:#fdfdfd" offset="0"/>
   <stop offset=".646" style="stop-color:#fcfcfc"/>
   <stop style="stop-color:#ffffff;stop-opacity:0" offset="1"/>
  </linearGradient>
  <clipPath id="clipPath942-3" clipPathUnits="userSpaceOnUse">
   <path d="M 188.96875,44 C 261.6174,44 272,54.356615 272,126.9375 v 58.125 C 272,257.64309 261.6174,268 188.96875,268 h -73.9375 C 42.3826,268 32,257.64309 32,185.0625 v -58.125 C 32,54.356615 42.3826,44 115.03125,44 Z" style="fill:#46a926"/>
  </clipPath>
  <linearGradient id="linearGradient1108" x1="296" x2="296" y1="-212" y2="236" gradientUnits="userSpaceOnUse" xlink:href="#linearGradient1013"/>
  <linearGradient id="linearGradient1013">
   <stop offset="0" style="stop-color:#ffffff"/>
   <stop style="stop-color:#ffffff;stop-opacity:0.09803922" offset=".125"/>
   <stop style="stop-color:#000000;stop-opacity:0.09803922" offset=".925"/>
   <stop offset="1" style="stop-color:#000000;stop-opacity:0.49803922"/>
  </linearGradient>
  <clipPath id="clipPath1082-3-75" clipPathUnits="userSpaceOnUse">
   <path d="M 361.9375,-212 C 507.2348,-212 528,-191.28677 528,-46.125 V 70.125 C 528,215.28618 507.2348,236 361.9375,236 H 214.0625 C 68.7652,236 48,215.28618 48,70.125 V -46.125 C 48,-191.28677 68.7652,-212 214.0625,-212 Z" style="fill:#8c59d9"/>
  </clipPath>
  <linearGradient id="linearGradient946" x1="24" x2="328" y1="28" y2="332" gradientTransform="matrix(0.26458333,0,0,0.26458333,-6.993468,221.97263)" gradientUnits="userSpaceOnUse" xlink:href="#radialGradient3322-6"/>
  <radialGradient id="radialGradient3322-6" cx="26.617" cy="-2.065" r="23" gradientTransform="matrix(-4.8906e-8,-2.8515,3.7557,0,674.00149,398.26285)" gradientUnits="userSpaceOnUse">
   <stop style="stop-color:#6f6f6f" offset="0"/>
   <stop offset=".529" style="stop-color:#444444"/>
   <stop style="stop-color:#373737" offset="1"/>
  </radialGradient>
  <filter style="color-interpolation-filters:sRGB" id="filter933" width="1.046" height="1.05" x="-.02" y="-.03">
   <feGaussianBlur stdDeviation="2.32"/>
  </filter>
  <filter style="color-interpolation-filters:sRGB" id="filter4569" width="1.023" height="1.025" x="-.01" y="-.01">
   <feGaussianBlur stdDeviation="1.16"/>
  </filter>
  <linearGradient id="linearGradient4470" x1="256" x2="256" y1="375" y2="135.281" gradientTransform="matrix(0.13229166,0,0,0.13229166,-0.03208851,229.37862)" gradientUnits="userSpaceOnUse" xlink:href="#linearGradient4464"/>
  <linearGradient id="linearGradient4464">
   <stop offset="0" style="stop-color:#6f6f6f"/>
   <stop offset="1" style="stop-color:#4e4e4e"/>
  </linearGradient>
  <filter style="color-interpolation-filters:sRGB" id="filter4460" width="1.026" height="1.023" x="-.01" y="-.01">
   <feGaussianBlur stdDeviation="1.133"/>
  </filter>
  <linearGradient id="linearGradient4413" x1="256" x2="256" y1="138" y2="375" gradientUnits="userSpaceOnUse" xlink:href="#linearGradient4295"/>
  <linearGradient id="linearGradient4295">
   <stop style="stop-color:#000000;stop-opacity:0" offset="0"/>
   <stop offset=".505" style="stop-color:#000000"/>
   <stop style="stop-color:#000000;stop-opacity:0" offset="1"/>
  </linearGradient>
 </defs>
 <g transform="translate(0,-229.26666)">
  <path d="m 162.53675,3.5680001 c 72.64865,0 83.03125,10.3566149 83.03125,82.9375049 v 58.125005 c 0,72.58059 -10.3826,82.9375 -83.03125,82.9375 H 88.599254 C 15.9506,227.56801 5.568,217.2111 5.568,144.63051 V 86.505505 c 0,-72.58089 10.3826,-82.9375049 83.031254,-82.9375049 z" transform="matrix(0.26458333,0,0,0.26458333,-1.8735233e-8,232.67026)" style="opacity:0.1;filter:url(#filter4569)"/>
  <path style="opacity:0.2;filter:url(#filter933)" d="m 162.53675,5.5680001 c 72.64865,0 83.03125,10.3566149 83.03125,82.9375049 v 58.125005 c 0,72.58059 -10.3826,82.9375 -83.03125,82.9375 H 88.599254 C 15.9506,229.56801 5.568,219.2111 5.568,146.63051 V 88.505505 c 0,-72.58089 10.3826,-82.9375049 83.031254,-82.9375049 z" transform="matrix(0.26458333,0,0,0.26458333,-1.8735233e-8,232.67026)"/>
  <path style="fill:url(#linearGradient946)" d="m 43.004513,233.61429 c 19.221622,0 21.968685,2.74019 21.968685,21.94388 v 15.37891 c 0,19.20362 -2.747063,21.94388 -21.968685,21.94388 h -19.56263 c -19.221622,0 -21.968685,-2.74026 -21.968685,-21.94388 v -15.37891 c 0,-19.20369 2.747063,-21.94388 21.968685,-21.94388 z"/>
  <path style="opacity:0.1;fill:#ffffff" d="m 1.473198,263.24763 v 7.68945 c 0,19.20362 2.747063,21.94388 21.968685,21.94388 h 19.56263 c 19.221622,0 21.968685,-2.74026 21.968685,-21.94388 v -7.68945 z"/>
  <path d="m 28.369747,245.78513 -4.655012,9.47952 v 7.83828 c -0.653513,0.76571 -1.367793,1.5373 -2.112531,2.28204 -2.44781,2.4478 -5.192145,4.58877 -7.027996,5.20071 l -3.092318,-3.08818 -9.479525,4.65501 v 22.58054 h 33.866666 v -42.01088 c -2.039491,-4.42431 -4.282038,-6.07499 -7.499284,-6.93704 z m -12.906705,30.29479 c 9.26e-4,-5.3e-4 0.0032,5.3e-4 0.0041,0 -0.345379,0.21569 -0.694661,0.42686 -1.045931,0.63665 0.351357,-0.20976 0.696343,-0.421 1.041803,-0.63665 z m -3.187402,1.86035 c 0.0011,-5.3e-4 0.0031,5.3e-4 0.0041,0 -0.362722,0.19832 -0.731389,0.3943 -1.099674,0.58705 0.368336,-0.19273 0.732771,-0.38875 1.095547,-0.58705 z" style="opacity:0.05;fill:#ff0000;fill-opacity:0"/>
  <path d="M 361.9375,-212 C 507.2348,-212 528,-191.28677 528,-46.125 V 70.125 C 528,215.28618 507.2348,236 361.9375,236 H 214.0625 C 68.7652,236 48,215.28618 48,70.125 V -46.125 C 48,-191.28677 68.7652,-212 214.0625,-212 Z" clip-path="url(#clipPath1082-3-75)" transform="matrix(0.13229167,0,0,0.13229167,-4.876802,261.66013)" style="opacity:0.4;fill:none;stroke:url(#linearGradient1108);stroke-width:8;stroke-linecap:round;stroke-linejoin:round"/>
  <path style="opacity:0.5;fill:url(#linearGradient4216)" d="M 40,52 V 68 H 60 V 52 Z m 204,0 v 16 h 20 V 52 Z M 40,76 V 92 H 60 V 76 Z m 204,0 v 16 h 20 V 76 Z M 40,100 v 16 h 20 v -16 z m 204,0 v 16 h 20 V 100 Z M 40,124 v 16 h 20 v -16 z m 204,0 v 16 h 20 V 124 Z M 40,148 v 16 h 20 v -16 z m 204,0 v 16 h 20 V 148 Z M 40,172 v 16 h 20 v -16 z m 204,0 v 16 h 20 V 172 Z M 40,196 v 16 h 20 v -16 z m 204,0 v 16 h 20 V 196 Z M 40,220 v 16 h 20 v -16 z m 204,0 v 16 h 20 V 220 Z M 40,244 v 16 h 20 v -16 z m 204,0 v 16 h 20 v -16 z" clip-path="url(#clipPath942-3)" transform="matrix(0,0.2528574,-0.26458333,0,74.498197,224.8133)"/>
  <path style="opacity:0.75;fill:#fffeff" d="M 10.947266 45.931641 C 10.709166 46.632493 10.412056 47.239194 10.193359 47.972656 C 9.4711176 50.394901 8.8532979 52.996611 8.3261719 55.791016 C 7.7990459 58.58542 7.3632033 61.571781 7.0058594 64.763672 C 6.6485155 67.955563 6.3691456 71.352094 6.15625 74.966797 C 5.7304589 82.196202 5.5683594 90.296531 5.5683594 99.369141 L 5.5683594 157.49414 C 5.5683594 166.56672 5.7304589 174.6671 6.15625 181.89648 C 6.3691456 185.51118 6.6485155 188.90772 7.0058594 192.09961 C 7.3632033 195.29149 7.7990459 198.27982 8.3261719 201.07422 C 8.8532979 203.86862 9.4711176 206.47033 10.193359 208.89258 C 10.411872 209.62542 10.709383 210.23135 10.947266 210.93164 L 240.18945 210.93164 C 240.42731 210.23141 240.72487 209.62535 240.94336 208.89258 C 241.6656 206.47033 242.28342 203.86862 242.81055 201.07422 C 243.33767 198.27982 243.77352 195.29149 244.13086 192.09961 C 244.4882 188.90772 244.76757 185.51118 244.98047 181.89648 C 245.40626 174.6671 245.56836 166.56672 245.56836 157.49414 L 245.56836 99.369141 C 245.56836 90.296531 245.40626 82.196202 244.98047 74.966797 C 244.76757 71.352094 244.4882 67.955563 244.13086 64.763672 C 243.77352 61.571781 243.33767 58.58542 242.81055 55.791016 C 242.28342 52.996611 241.6656 50.394901 240.94336 47.972656 C 240.72468 47.239263 240.42753 46.63243 240.18945 45.931641 L 10.947266 45.931641 z" transform="matrix(0.26458333,0,0,0.26458333,0,229.26666)"/>
  <path d="m 155.41127,137.99999 v 239.99999 c 0,0 121.72498,-49.19762 221.18971,-120.07579 0,-0.0217 -0.0115,-0.0398 -0.0253,-0.0645 -0.0115,-0.0263 -0.0264,-0.0523 -0.0448,-0.0786 -0.0191,-0.026 -0.0374,-0.0533 -0.0504,-0.0786 -0.0147,-0.0262 -0.0253,-0.0526 -0.0253,-0.0758 C 271.53919,184.48813 155.41146,138.00011 155.41146,138.00011 Z" transform="matrix(0.13229167,0,0,0.13229167,-0.03208951,229.37862)" style="opacity:0.4;fill:url(#linearGradient4413);filter:url(#filter4415)"/>
  <path d="m 155.41127,137.99999 v 239.99999 c 0,0 121.72498,-49.19762 221.18971,-120.07579 0,-0.0217 -0.0115,-0.0398 -0.0253,-0.0645 -0.0115,-0.0263 -0.0264,-0.0523 -0.0448,-0.0786 -0.0191,-0.026 -0.0374,-0.0533 -0.0504,-0.0786 -0.0147,-0.0262 -0.0253,-0.0526 -0.0253,-0.0758 C 271.53919,184.48813 155.41146,138.00011 155.41146,138.00011 Z" transform="matrix(0.13229167,0,0,0.13229167,-0.03208951,229.37862)" style="opacity:0.1;filter:url(#filter4460)"/>
  <path style="fill:url(#linearGradient4470)" d="m 20.527526,247.37029 v 31.75 c 0,0 16.103196,-6.50844 29.261551,-15.88503 0,-0.003 -0.0016,-0.005 -0.0034,-0.009 -0.0016,-0.003 -0.0035,-0.007 -0.0059,-0.0104 -0.0026,-0.003 -0.0049,-0.007 -0.0067,-0.0104 -0.0019,-0.003 -0.0034,-0.007 -0.0034,-0.01 -13.879426,-9.67517 -29.242153,-15.82515 -29.242153,-15.82515 z"/>
  <path style="fill:#ffffff;opacity:0.75" d="m 20.527452,247.37029 v 0.26458 c 0,0 15.258392,6.10639 29.090136,15.72101 0.05704,-0.0405 0.114596,-0.0801 0.171566,-0.12067 0,-0.003 -0.0016,-0.005 -0.0034,-0.009 -0.0016,-0.003 -0.0035,-0.007 -0.006,-0.0103 -0.0026,-0.003 -0.005,-0.007 -0.0067,-0.0104 -0.0019,-0.003 -0.0034,-0.007 -0.0034,-0.0101 -13.879496,-9.6756 -29.242308,-15.82563 -29.242308,-15.82563 z"/>
 </g>
</svg>
